svg/color/agusd.svg

<?xml version="1.0" encoding="UTF-8" ?>
<!DOCTYPE svg PUBLIC "-//W3C//DTD SVG 1.1//EN" "http://www.w3.org/Graphics/SVG/1.1/DTD/svg11.dtd">
<svg width="250pt" height="250pt" viewBox="0 0 250 250" version="1.1" xmlns="http://www.w3.org/2000/svg">
<g id="#ffffffff">
<path fill="#ffffff" opacity="1.00" d=" M 0.00 0.00 L 119.60 0.00 C 108.77 0.91 97.89 2.17 87.59 5.83 C 78.85 8.52 70.25 11.95 62.45 16.77 C 55.10 20.98 47.98 25.71 41.91 31.65 C 35.75 37.15 30.05 43.21 25.14 49.85 C 19.90 56.81 15.38 64.32 11.72 72.23 C 7.04 82.10 3.85 92.64 1.85 103.37 C 1.09 108.08 0.55 112.84 0.00 117.58 L 0.00 0.00 Z" />
<path fill="#ffffff" opacity="1.00" d=" M 132.32 0.00 L 250.00 0.00 L 250.00 118.58 C 249.29 112.34 248.86 106.04 247.45 99.91 C 241.28 69.56 223.36 41.90 198.38 23.64 C 182.77 12.38 164.53 4.95 145.59 1.66 C 141.00 0.89 136.34 0.55 131.69 0.59 L 132.32 0.00 Z" />
<path fill="#ffffff" opacity="1.00" d=" M 99.09 16.42 C 112.88 13.13 127.19 13.09 141.25 14.27 C 150.06 16.25 159.02 17.97 167.29 21.70 C 190.73 31.23 210.49 49.17 222.82 71.19 C 226.62 77.76 229.04 84.97 231.89 91.97 C 233.29 99.30 235.40 106.51 236.05 113.96 C 236.69 121.55 236.40 129.17 236.19 136.78 C 234.45 147.00 232.36 157.24 228.50 166.90 C 224.79 176.05 219.73 184.60 214.01 192.63 C 208.07 200.07 201.28 206.79 193.94 212.84 C 185.48 219.30 176.23 224.63 166.43 228.78 C 154.38 233.04 141.84 236.24 128.99 236.44 C 123.56 236.45 118.13 236.47 112.71 236.21 C 94.23 233.58 76.03 227.18 60.79 216.24 C 44.50 204.78 31.22 189.00 23.17 170.75 C 20.40 164.72 18.59 158.32 16.37 152.08 C 14.05 139.28 12.68 126.24 13.99 113.24 C 15.34 102.18 18.03 91.30 22.35 81.02 C 25.87 72.92 30.29 65.20 35.56 58.11 C 40.74 51.72 46.28 45.62 52.38 40.09 C 58.68 35.05 65.35 30.49 72.31 26.41 C 80.91 22.30 89.72 18.44 99.09 16.42 M 124.31 29.43 C 93.65 28.94 63.76 45.34 46.41 70.42 C 29.96 93.41 24.99 124.04 32.86 151.14 C 39.53 175.37 56.58 196.27 78.35 208.61 C 92.57 216.42 108.74 220.91 125.00 220.69 C 153.92 221.02 182.44 206.93 200.14 184.13 C 217.59 162.65 224.53 133.16 218.84 106.11 C 214.05 80.63 197.75 57.87 175.99 44.02 C 160.64 34.40 142.51 28.84 124.31 29.43 Z" />
<path fill="#ffffff" opacity="1.00" d=" M 116.42 32.54 C 131.91 31.20 147.78 33.64 161.99 40.02 C 181.59 48.60 198.28 64.02 207.72 83.29 C 218.18 103.44 220.49 127.56 214.46 149.42 C 209.87 166.82 199.58 182.32 186.49 194.52 C 165.61 212.81 136.32 221.54 108.92 216.25 C 93.02 213.74 78.13 206.34 65.62 196.35 C 50.79 183.49 39.44 166.25 34.92 147.02 C 29.55 125.58 32.29 102.19 42.59 82.61 C 56.51 54.75 85.51 35.46 116.42 32.54 M 104.69 93.64 C 103.73 96.50 103.36 99.51 102.37 102.36 C 99.26 103.43 95.96 103.82 92.87 104.95 C 79.18 109.95 68.65 122.64 66.36 137.04 C 64.89 145.71 66.45 154.81 70.46 162.62 C 76.32 173.97 87.71 182.09 100.22 184.39 C 104.98 184.85 109.81 184.88 114.56 184.30 C 128.24 181.46 140.56 171.62 145.44 158.41 C 146.76 155.15 147.22 151.64 148.36 148.33 C 152.19 147.19 156.26 146.75 159.87 144.91 C 172.32 139.57 181.56 127.77 184.31 114.57 C 184.89 109.29 184.94 103.89 184.17 98.63 C 181.85 89.15 176.49 80.27 168.65 74.36 C 159.82 67.49 148.08 64.53 137.05 66.39 C 122.38 68.68 109.47 79.58 104.69 93.64 Z" />
<path fill="#ffffff" opacity="1.00" d=" M 114.96 92.98 C 120.30 82.28 131.93 74.71 144.02 75.18 C 158.92 74.98 173.27 87.03 174.88 101.96 C 172.63 102.53 170.29 102.40 167.99 102.41 C 149.55 102.20 131.09 102.65 112.66 102.19 C 112.14 98.94 113.62 95.84 114.96 92.98 Z" />
<path fill="#ffffff" opacity="1.00" d=" M 112.05 112.04 C 116.66 111.32 121.35 111.83 126.00 111.71 C 130.22 111.81 134.51 111.30 138.68 112.10 C 138.84 120.95 138.86 129.82 138.67 138.67 C 129.82 138.86 120.95 138.84 112.10 138.68 C 111.30 134.51 111.81 130.23 111.71 126.00 C 111.82 121.35 111.33 116.66 112.05 112.04 Z" />
<path fill="#ffffff" opacity="1.00" d=" M 148.37 112.16 C 152.17 111.25 156.13 111.82 160.00 111.71 C 164.95 111.86 169.95 111.27 174.87 112.08 C 173.44 125.59 161.53 136.54 148.42 138.77 C 148.23 129.91 148.29 121.03 148.37 112.16 Z" />
<path fill="#ffffff" opacity="1.00" d=" M 81.57 124.56 C 86.54 118.31 93.91 112.59 102.19 112.66 C 102.64 118.76 102.23 124.89 102.40 131.00 C 102.32 133.55 102.72 136.22 101.91 138.69 C 93.30 138.85 84.67 138.84 76.05 138.70 C 75.67 133.54 78.82 128.74 81.57 124.56 Z" />
<path fill="#ffffff" opacity="1.00" d=" M 248.36 144.56 C 248.95 140.19 249.57 135.82 250.00 131.43 L 250.00 250.00 L 134.47 250.00 C 148.88 248.33 163.19 245.00 176.40 238.89 C 186.24 234.79 195.29 228.90 203.49 222.14 C 211.35 216.07 218.16 208.76 224.20 200.91 C 230.12 193.40 234.98 185.06 238.84 176.33 C 243.53 166.28 246.77 155.53 248.36 144.56 Z" />
<path fill="#ffffff" opacity="1.00" d=" M 0.00 132.41 C 0.44 136.67 1.01 140.91 1.60 145.14 C 6.70 176.66 24.39 205.92 50.00 225.00 C 68.77 239.65 92.11 247.41 115.59 250.00 L 0.00 250.00 L 0.00 132.41 Z" />
<path fill="#ffffff" opacity="1.00" d=" M 76.20 148.40 C 97.03 148.24 117.89 148.32 138.72 148.37 C 136.54 162.82 123.71 174.91 108.97 175.47 C 93.34 176.76 77.92 164.69 75.71 149.13 L 76.20 148.40 Z" />
</g>
<g id="#9e63a5ff">
<path fill="#9e63a5" opacity="1.00" d=" M 119.60 0.00 L 132.32 0.00 L 131.69 0.59 C 130.43 1.00 128.16 1.98 129.39 3.60 C 132.84 7.67 137.85 10.10 141.25 14.27 C 127.19 13.09 112.88 13.13 99.09 16.42 C 94.22 14.15 91.36 9.42 87.59 5.83 C 97.89 2.17 108.77 0.91 119.60 0.00 Z" />
</g>
<g id="#af56a0ff">
<path fill="#af56a0" opacity="1.00" d=" M 129.39 3.60 C 128.16 1.98 130.43 1.00 131.69 0.59 C 136.34 0.55 141.00 0.89 145.59 1.66 C 164.53 4.95 182.77 12.38 198.38 23.64 C 223.36 41.90 241.28 69.56 247.45 99.91 C 247.07 100.40 246.31 101.39 245.93 101.88 C 240.87 99.13 237.20 94.37 231.89 91.97 C 229.04 84.97 226.62 77.76 222.82 71.19 C 210.49 49.17 190.73 31.23 167.29 21.70 C 159.02 17.97 150.06 16.25 141.25 14.27 C 137.85 10.10 132.84 7.67 129.39 3.60 Z" />
</g>
<g id="#8f6faaff">
<path fill="#8f6faa" opacity="1.00" d=" M 62.45 16.77 C 70.25 11.95 78.85 8.52 87.59 5.83 C 91.36 9.42 94.22 14.15 99.09 16.42 C 89.72 18.44 80.91 22.30 72.31 26.41 C 68.59 23.67 65.11 20.57 62.45 16.77 Z" />
</g>
<g id="#8179aeff">
<path fill="#8179ae" opacity="1.00" d=" M 41.91 31.65 C 47.98 25.71 55.10 20.98 62.45 16.77 C 65.11 20.57 68.59 23.67 72.31 26.41 C 65.35 30.49 58.68 35.05 52.38 40.09 C 48.94 37.22 45.46 34.39 41.91 31.65 Z" />
</g>
<g id="#2bdef9ff">
<path fill="#2bdef9" opacity="1.00" d=" M 124.31 29.43 C 142.51 28.84 160.64 34.40 175.99 44.02 C 197.75 57.87 214.05 80.63 218.84 106.11 C 224.53 133.16 217.59 162.65 200.14 184.13 C 182.44 206.93 153.92 221.02 125.00 220.69 C 108.74 220.91 92.57 216.42 78.35 208.61 C 56.58 196.27 39.53 175.37 32.86 151.14 C 24.99 124.04 29.96 93.41 46.41 70.42 C 63.76 45.34 93.65 28.94 124.31 29.43 M 116.42 32.54 C 85.51 35.46 56.51 54.75 42.59 82.61 C 32.29 102.19 29.55 125.58 34.92 147.02 C 39.44 166.25 50.79 183.49 65.62 196.35 C 78.13 206.34 93.02 213.74 108.92 216.25 C 136.32 221.54 165.61 212.81 186.49 194.52 C 199.58 182.32 209.87 166.82 214.46 149.42 C 220.49 127.56 218.18 103.44 207.72 83.29 C 198.28 64.02 181.59 48.60 161.99 40.02 C 147.78 33.64 131.91 31.20 116.42 32.54 Z" />
</g>
<g id="#7483b1ff">
<path fill="#7483b1" opacity="1.00" d=" M 25.14 49.85 C 30.05 43.21 35.75 37.15 41.91 31.65 C 45.46 34.39 48.94 37.22 52.38 40.09 C 46.28 45.62 40.74 51.72 35.56 58.11 C 32.60 54.77 29.27 51.66 25.14 49.85 Z" />
</g>
<g id="#668eb5ff">
<path fill="#668eb5" opacity="1.00" d=" M 25.14 49.85 C 29.27 51.66 32.60 54.77 35.56 58.11 C 30.29 65.20 25.87 72.92 22.35 81.02 C 19.40 77.50 16.41 73.44 11.72 72.23 C 15.38 64.32 19.90 56.81 25.14 49.85 Z" />
</g>
<g id="#26ddf9ff">
<path fill="#26ddf9" opacity="1.00" d=" M 104.69 93.64 C 109.47 79.58 122.38 68.68 137.05 66.39 C 148.08 64.53 159.82 67.49 168.65 74.36 C 176.49 80.27 181.85 89.15 184.17 98.63 C 184.94 103.89 184.89 109.29 184.31 114.57 C 181.56 127.77 172.32 139.57 159.87 144.91 C 156.26 146.75 152.19 147.19 148.36 148.33 C 147.22 151.64 146.76 155.15 145.44 158.41 C 140.56 171.62 128.24 181.46 114.56 184.30 C 109.81 184.88 104.98 184.85 100.22 184.39 C 87.71 182.09 76.32 173.97 70.46 162.62 C 66.45 154.81 64.89 145.71 66.36 137.04 C 68.65 122.64 79.18 109.95 92.87 104.95 C 95.96 103.82 99.26 103.43 102.37 102.36 C 103.36 99.51 103.73 96.50 104.69 93.64 M 114.96 92.98 C 113.62 95.84 112.14 98.94 112.66 102.19 C 131.09 102.65 149.55 102.20 167.99 102.41 C 170.29 102.40 172.63 102.53 174.88 101.96 C 173.27 87.03 158.92 74.98 144.02 75.18 C 131.93 74.71 120.30 82.28 114.96 92.98 M 112.05 112.04 C 111.33 116.66 111.82 121.35 111.71 126.00 C 111.81 130.23 111.30 134.51 112.10 138.68 C 120.95 138.84 129.82 138.86 138.67 138.67 C 138.86 129.82 138.84 120.95 138.68 112.10 C 134.51 111.30 130.22 111.81 126.00 111.71 C 121.35 111.83 116.66 111.32 112.05 112.04 M 148.37 112.16 C 148.29 121.03 148.23 129.91 148.42 138.77 C 161.53 136.54 173.44 125.59 174.87 112.08 C 169.95 111.27 164.95 111.86 160.00 111.71 C 156.13 111.82 152.17 111.25 148.37 112.16 M 81.57 124.56 C 78.82 128.74 75.67 133.54 76.05 138.70 C 84.67 138.84 93.30 138.85 101.91 138.69 C 102.72 136.22 102.32 133.55 102.40 131.00 C 102.23 124.89 102.64 118.76 102.19 112.66 C 93.91 112.59 86.54 118.31 81.57 124.56 M 76.20 148.40 L 75.71 149.13 C 77.92 164.69 93.34 176.76 108.97 175.47 C 123.71 174.91 136.54 162.82 138.72 148.37 C 117.89 148.32 97.03 148.24 76.20 148.40 Z" />
</g>
<g id="#579abaff">
<path fill="#579aba" opacity="1.00" d=" M 11.72 72.23 C 16.41 73.44 19.40 77.50 22.35 81.02 C 18.03 91.30 15.34 102.18 13.99 113.24 C 12.14 108.32 7.61 102.84 1.85 103.37 C 3.85 92.64 7.04 82.10 11.72 72.23 Z" />
</g>
<g id="#9e64a5ff">
<path fill="#9e64a5" opacity="1.00" d=" M 231.89 91.97 C 237.20 94.37 240.87 99.13 245.93 101.88 C 246.31 101.39 247.07 100.40 247.45 99.91 C 248.86 106.04 249.29 112.34 250.00 118.58 L 250.00 131.43 C 249.57 135.82 248.95 140.19 248.36 144.56 C 243.57 143.25 240.71 138.68 236.19 136.78 C 236.40 129.17 236.69 121.55 236.05 113.96 C 235.40 106.51 233.29 99.30 231.89 91.97 Z" />
</g>
<g id="#47a8bfff">
<path fill="#47a8bf" opacity="1.00" d=" M 1.85 103.37 C 7.61 102.84 12.14 108.32 13.99 113.24 C 12.68 126.24 14.05 139.28 16.37 152.08 C 11.05 150.50 7.53 146.04 3.04 143.10 C 2.68 143.61 1.96 144.63 1.60 145.14 C 1.01 140.91 0.44 136.67 0.00 132.41 L 0.00 117.58 C 0.55 112.84 1.09 108.08 1.85 103.37 Z" />
</g>
<g id="#8c71aaff">
<path fill="#8c71aa" opacity="1.00" d=" M 236.19 136.78 C 240.71 138.68 243.57 143.25 248.36 144.56 C 246.77 155.53 243.53 166.28 238.84 176.33 C 234.16 174.83 231.01 170.91 228.50 166.90 C 232.36 157.24 234.45 147.00 236.19 136.78 Z" />
</g>
<g id="#34b6c4ff">
<path fill="#34b6c4" opacity="1.00" d=" M 1.60 145.14 C 1.96 144.63 2.68 143.61 3.04 143.10 C 7.53 146.04 11.05 150.50 16.37 152.08 C 18.59 158.32 20.40 164.72 23.17 170.75 C 31.22 189.00 44.50 204.78 60.79 216.24 C 76.03 227.18 94.23 233.58 112.71 236.21 C 119.96 237.62 127.42 240.40 132.18 246.31 C 132.30 247.53 132.20 248.77 132.18 250.00 L 115.59 250.00 C 92.11 247.41 68.77 239.65 50.00 225.00 C 24.39 205.92 6.70 176.66 1.60 145.14 Z" />
</g>
<g id="#7c7dafff">
<path fill="#7c7daf" opacity="1.00" d=" M 214.01 192.63 C 219.73 184.60 224.79 176.05 228.50 166.90 C 231.01 170.91 234.16 174.83 238.84 176.33 C 234.98 185.06 230.12 193.40 224.20 200.91 C 221.19 197.70 217.75 194.93 214.01 192.63 Z" />
</g>
<g id="#6d89b4ff">
<path fill="#6d89b4" opacity="1.00" d=" M 193.94 212.84 C 201.28 206.79 208.07 200.07 214.01 192.63 C 217.75 194.93 221.19 197.70 224.20 200.91 C 218.16 208.76 211.35 216.07 203.49 222.14 C 201.35 218.09 197.08 215.98 193.94 212.84 Z" />
</g>
<g id="#5c96b9ff">
<path fill="#5c96b9" opacity="1.00" d=" M 166.43 228.78 C 176.23 224.63 185.48 219.30 193.94 212.84 C 197.08 215.98 201.35 218.09 203.49 222.14 C 195.29 228.90 186.24 234.79 176.40 238.89 C 174.29 234.45 169.57 232.35 166.43 228.78 Z" />
</g>
<g id="#49a5beff">
<path fill="#49a5be" opacity="1.00" d=" M 128.99 236.44 C 141.84 236.24 154.38 233.04 166.43 228.78 C 169.57 232.35 174.29 234.45 176.40 238.89 C 163.19 245.00 148.88 248.33 134.47 250.00 L 132.18 250.00 C 132.20 248.77 132.30 247.53 132.18 246.31 C 127.42 240.40 119.96 237.62 112.71 236.21 C 118.13 236.47 123.56 236.45 128.99 236.44 Z" />
</g>
</svg>

<?xml version="1.0" encoding="utf-8"?>
<!-- Generator: Adobe Illustrator 26.0.3, SVG Export Plug-In . SVG Version: 6.00 Build 0)  -->
<svg version="1.1" id="Layer_1" xmlns="http://www.w3.org/2000/svg" xmlns:xlink="http://www.w3.org/1999/xlink" x="0px" y="0px"
	 viewBox="0 0 250 250" style="enable-background:new 0 0 250 250;" xml:space="preserve">
<style type="text/css">
	.st0{fill:#FFFFFF;}
	.st1{fill:#9E63A5;}
	.st2{fill:#AF56A0;}
	.st3{fill:#8F6FAA;}
	.st4{fill:#8179AE;}
	.st5{fill:#2BDEF9;}
	.st6{fill:#7483B1;}
	.st7{fill:#668EB5;}
	.st8{fill:#26DDF9;}
	.st9{fill:#579ABA;}
	.st10{fill:#9E64A5;}
	.st11{fill:#47A8BF;}
	.st12{fill:#8C71AA;}
	.st13{fill:#34B6C4;}
	.st14{fill:#7C7DAF;}
	.st15{fill:#6D89B4;}
	.st16{fill:#5C96B9;}
	.st17{fill:#49A5BE;}
</style>
<g id="_x23_ffffffff">
	<path class="st0" d="M99.1,16.4c13.8-3.3,28.1-3.3,42.2-2.1c8.8,2,17.8,3.7,26,7.4c23.4,9.5,43.2,27.5,55.5,49.5
		c3.8,6.6,6.2,13.8,9.1,20.8c1.4,7.3,3.5,14.5,4.2,22c0.6,7.6,0.3,15.2,0.1,22.8c-1.7,10.2-3.8,20.5-7.7,30.1
		c-3.7,9.2-8.8,17.7-14.5,25.7c-5.9,7.4-12.7,14.2-20.1,20.2c-8.5,6.5-17.7,11.8-27.5,15.9c-12,4.3-24.6,7.5-37.4,7.7
		c-5.4,0-10.9,0-16.3-0.2c-18.5-2.6-36.7-9-51.9-20c-16.3-11.5-29.6-27.2-37.6-45.5c-2.8-6-4.6-12.4-6.8-18.7
		c-2.3-12.8-3.7-25.8-2.4-38.8c1.4-11.1,4-21.9,8.4-32.2c3.5-8.1,7.9-15.8,13.2-22.9c5.2-6.4,10.7-12.5,16.8-18
		c6.3-5,13-9.6,19.9-13.7C80.9,22.3,89.7,18.4,99.1,16.4 M124.3,29.4c-30.7-0.5-60.5,15.9-77.9,41C30,93.4,25,124,32.9,151.1
		c6.7,24.2,23.7,45.1,45.5,57.5c14.2,7.8,30.4,12.3,46.7,12.1c28.9,0.3,57.4-13.8,75.1-36.6c17.4-21.5,24.4-51,18.7-78
		C214.1,80.6,197.8,57.9,176,44C160.6,34.4,142.5,28.8,124.3,29.4z"/>
	<path class="st0" d="M116.4,32.5c15.5-1.3,31.4,1.1,45.6,7.5c19.6,8.6,36.3,24,45.7,43.3c10.5,20.2,12.8,44.3,6.7,66.1
		c-4.6,17.4-14.9,32.9-28,45.1c-20.9,18.3-50.2,27-77.6,21.7c-15.9-2.5-30.8-9.9-43.3-19.9c-14.8-12.9-26.2-30.1-30.7-49.3
		c-5.4-21.4-2.6-44.8,7.7-64.4C56.5,54.8,85.5,35.5,116.4,32.5 M104.7,93.6c-1,2.9-1.3,5.9-2.3,8.7c-3.1,1.1-6.4,1.5-9.5,2.6
		c-13.7,5-24.2,17.7-26.5,32.1c-1.5,8.7,0.1,17.8,4.1,25.6c5.9,11.4,17.2,19.5,29.8,21.8c4.8,0.5,9.6,0.5,14.3-0.1
		c13.7-2.8,26-12.7,30.9-25.9c1.3-3.3,1.8-6.8,2.9-10.1c3.8-1.1,7.9-1.6,11.5-3.4c12.5-5.3,21.7-17.1,24.4-30.3
		c0.6-5.3,0.6-10.7-0.1-15.9c-2.3-9.5-7.7-18.4-15.5-24.3c-8.8-6.9-20.6-9.8-31.6-8C122.4,68.7,109.5,79.6,104.7,93.6z"/>
	<path class="st0" d="M115,93c5.3-10.7,17-18.3,29.1-17.8C158.9,75,173.3,87,174.9,102c-2.2,0.6-4.6,0.4-6.9,0.5
		c-18.4-0.2-36.9,0.2-55.3-0.2C112.1,98.9,113.6,95.8,115,93z"/>
	<path class="st0" d="M112.1,112c4.6-0.7,9.3-0.2,13.9-0.3c4.2,0.1,8.5-0.4,12.7,0.4c0.2,8.8,0.2,17.7,0,26.6
		c-8.8,0.2-17.7,0.2-26.6,0c-0.8-4.2-0.3-8.4-0.4-12.7C111.8,121.3,111.3,116.7,112.1,112z"/>
	<path class="st0" d="M148.4,112.2c3.8-0.9,7.8-0.3,11.6-0.5c4.9,0.2,9.9-0.4,14.9,0.4c-1.4,13.5-13.3,24.5-26.4,26.7
		C148.2,129.9,148.3,121,148.4,112.2z"/>
	<path class="st0" d="M81.6,124.6c5-6.2,12.3-12,20.6-11.9c0.4,6.1,0,12.2,0.2,18.3c-0.1,2.6,0.3,5.2-0.5,7.7
		c-8.6,0.2-17.2,0.1-25.9,0C75.7,133.5,78.8,128.7,81.6,124.6z"/>
	<path class="st0" d="M76.2,148.4c20.8-0.2,41.7-0.1,62.5,0c-2.2,14.5-15,26.5-29.8,27.1c-15.6,1.3-31.1-10.8-33.3-26.3L76.2,148.4z
		"/>
</g>
<g id="_x23_9e63a5ff">
	<path class="st1" d="M119.6,0h12.7l-0.6,0.6c-1.3,0.4-3.5,1.4-2.3,3c3.4,4.1,8.5,6.5,11.9,10.7c-14.1-1.2-28.4-1.1-42.2,2.1
		c-4.9-2.3-7.7-7-11.5-10.6C97.9,2.2,108.8,0.9,119.6,0z"/>
</g>
<g id="_x23_af56a0ff">
	<path class="st2" d="M129.4,3.6c-1.2-1.6,1-2.6,2.3-3c4.6,0,9.3,0.3,13.9,1.1c18.9,3.3,37.2,10.7,52.8,22
		c25,18.3,42.9,45.9,49.1,76.3c-0.4,0.5-1.1,1.5-1.5,2c-5.1-2.8-8.7-7.5-14-9.9c-2.9-7-5.3-14.2-9.1-20.8
		c-12.3-22-32.1-40-55.5-49.5c-8.3-3.7-17.2-5.5-26-7.4C137.9,10.1,132.8,7.7,129.4,3.6z"/>
</g>
<g id="_x23_8f6faaff">
	<path class="st3" d="M62.5,16.8c7.8-4.8,16.4-8.2,25.1-10.9c3.8,3.6,6.6,8.3,11.5,10.6c-9.4,2-18.2,5.9-26.8,10
		C68.6,23.7,65.1,20.6,62.5,16.8z"/>
</g>
<g id="_x23_8179aeff">
	<path class="st4" d="M41.9,31.6C48,25.7,55.1,21,62.5,16.8c2.7,3.8,6.1,6.9,9.9,9.6c-7,4.1-13.6,8.6-19.9,13.7
		C48.9,37.2,45.5,34.4,41.9,31.6z"/>
</g>
<g id="_x23_2bdef9ff">
	<path class="st5" d="M124.3,29.4c18.2-0.6,36.3,5,51.7,14.6c21.8,13.8,38.1,36.6,42.8,62.1c5.7,27.1-1.2,56.5-18.7,78
		c-17.7,22.8-46.2,36.9-75.1,36.6c-16.3,0.2-32.4-4.3-46.7-12.1c-21.8-12.3-38.8-33.2-45.5-57.5C25,124,30,93.4,46.4,70.4
		C63.8,45.3,93.7,28.9,124.3,29.4 M116.4,32.5c-30.9,2.9-59.9,22.2-73.8,50.1c-10.3,19.6-13,43-7.7,64.4
		c4.5,19.2,15.9,36.5,30.7,49.3c12.5,10,27.4,17.4,43.3,19.9c27.4,5.3,56.7-3.4,77.6-21.7c13.1-12.2,23.4-27.7,28-45.1
		c6-21.9,3.7-46-6.7-66.1C198.3,64,181.6,48.6,162,40C147.8,33.6,131.9,31.2,116.4,32.5z"/>
</g>
<g id="_x23_7483b1ff">
	<path class="st6" d="M25.1,49.8c4.9-6.6,10.6-12.7,16.8-18.2c3.5,2.7,7,5.6,10.5,8.4c-6.1,5.5-11.6,11.6-16.8,18
		C32.6,54.8,29.3,51.7,25.1,49.8z"/>
</g>
<g id="_x23_668eb5ff">
	<path class="st7" d="M25.1,49.8c4.1,1.8,7.5,4.9,10.4,8.3c-5.3,7.1-9.7,14.8-13.2,22.9c-3-3.5-5.9-7.6-10.6-8.8
		C15.4,64.3,19.9,56.8,25.1,49.8z"/>
</g>
<g id="_x23_26ddf9ff">
	<path class="st8" d="M104.7,93.6c4.8-14.1,17.7-25,32.4-27.2c11-1.9,22.8,1.1,31.6,8c7.8,5.9,13.2,14.8,15.5,24.3
		c0.8,5.3,0.7,10.7,0.1,15.9c-2.8,13.2-12,25-24.4,30.3c-3.6,1.8-7.7,2.3-11.5,3.4c-1.1,3.3-1.6,6.8-2.9,10.1
		c-4.9,13.2-17.2,23.1-30.9,25.9c-4.8,0.6-9.6,0.6-14.3,0.1c-12.5-2.3-23.9-10.4-29.8-21.8c-4-7.8-5.6-16.9-4.1-25.6
		c2.3-14.4,12.8-27.1,26.5-32.1c3.1-1.1,6.4-1.5,9.5-2.6C103.4,99.5,103.7,96.5,104.7,93.6 M115,93c-1.3,2.9-2.8,6-2.3,9.2
		c18.4,0.5,36.9,0,55.3,0.2c2.3,0,4.6,0.1,6.9-0.5c-1.6-14.9-16-27-30.9-26.8C131.9,74.7,120.3,82.3,115,93 M112.1,112
		c-0.7,4.6-0.2,9.3-0.3,14c0.1,4.2-0.4,8.5,0.4,12.7c8.8,0.2,17.7,0.2,26.6,0c0.2-8.8,0.2-17.7,0-26.6c-4.2-0.8-8.5-0.3-12.7-0.4
		C121.3,111.8,116.7,111.3,112.1,112 M148.4,112.2c-0.1,8.9-0.1,17.8,0.1,26.6c13.1-2.2,25-13.2,26.4-26.7
		c-4.9-0.8-9.9-0.2-14.9-0.4C156.1,111.8,152.2,111.2,148.4,112.2 M81.6,124.6c-2.8,4.2-5.9,9-5.5,14.1c8.6,0.1,17.2,0.2,25.9,0
		c0.8-2.5,0.4-5.1,0.5-7.7c-0.2-6.1,0.2-12.2-0.2-18.3C93.9,112.6,86.5,118.3,81.6,124.6 M76.2,148.4l-0.5,0.7
		c2.2,15.6,17.6,27.6,33.3,26.3c14.7-0.6,27.6-12.6,29.8-27.1C117.9,148.3,97,148.2,76.2,148.4z"/>
</g>
<g id="_x23_579abaff">
	<path class="st9" d="M11.7,72.2c4.7,1.2,7.7,5.3,10.6,8.8c-4.3,10.3-7,21.2-8.4,32.2c-1.8-4.9-6.4-10.4-12.1-9.9
		C3.8,92.6,7,82.1,11.7,72.2z"/>
</g>
<g id="_x23_9e64a5ff">
	<path class="st10" d="M231.9,92c5.3,2.4,9,7.2,14,9.9c0.4-0.5,1.1-1.5,1.5-2c1.4,6.1,1.8,12.4,2.6,18.7v12.8
		c-0.4,4.4-1.1,8.8-1.6,13.1c-4.8-1.3-7.6-5.9-12.2-7.8c0.2-7.6,0.5-15.2-0.1-22.8C235.4,106.5,233.3,99.3,231.9,92z"/>
</g>
<g id="_x23_47a8bfff">
	<path class="st11" d="M1.9,103.4c5.8-0.5,10.3,4.9,12.1,9.9c-1.3,13,0.1,26,2.4,38.8c-5.3-1.6-8.8-6-13.3-9c-0.4,0.5-1.1,1.5-1.4,2
		c-0.6-4.2-1.2-8.5-1.6-12.7v-14.8C0.6,112.8,1.1,108.1,1.9,103.4z"/>
</g>
<g id="_x23_8c71aaff">
	<path class="st12" d="M236.2,136.8c4.5,1.9,7.4,6.5,12.2,7.8c-1.6,11-4.8,21.7-9.5,31.8c-4.7-1.5-7.8-5.4-10.3-9.4
		C232.4,157.2,234.4,147,236.2,136.8z"/>
</g>
<g id="_x23_34b6c4ff">
	<path class="st13" d="M1.6,145.1c0.4-0.5,1.1-1.5,1.4-2c4.5,2.9,8,7.4,13.3,9c2.2,6.2,4,12.6,6.8,18.7c8,18.2,21.3,34,37.6,45.5
		c15.2,10.9,33.4,17.3,51.9,20c7.2,1.4,14.7,4.2,19.5,10.1c0.1,1.2,0,2.5,0,3.7h-16.6c-23.5-2.6-46.8-10.4-65.6-25
		C24.4,205.9,6.7,176.7,1.6,145.1z"/>
</g>
<g id="_x23_7c7dafff">
	<path class="st14" d="M214,192.6c5.7-8,10.8-16.6,14.5-25.7c2.5,4,5.7,7.9,10.3,9.4c-3.9,8.7-8.7,17.1-14.6,24.6
		C221.2,197.7,217.8,194.9,214,192.6z"/>
</g>
<g id="_x23_6d89b4ff">
	<path class="st15" d="M193.9,212.8c7.3-6.1,14.1-12.8,20.1-20.2c3.7,2.3,7.2,5.1,10.2,8.3c-6,7.8-12.8,15.2-20.7,21.2
		C201.4,218.1,197.1,216,193.9,212.8z"/>
</g>
<g id="_x23_5c96b9ff">
	<path class="st16" d="M166.4,228.8c9.8-4.1,19.1-9.5,27.5-15.9c3.1,3.1,7.4,5.2,9.6,9.3c-8.2,6.8-17.2,12.6-27.1,16.8
		C174.3,234.4,169.6,232.4,166.4,228.8z"/>
</g>
<g id="_x23_49a5beff">
	<path class="st17" d="M129,236.4c12.8-0.2,25.4-3.4,37.4-7.7c3.1,3.6,7.9,5.7,10,10.1c-13.2,6.1-27.5,9.4-41.9,11.1h-2.3
		c0-1.2,0.1-2.5,0-3.7c-4.8-5.9-12.2-8.7-19.5-10.1C118.1,236.5,123.6,236.4,129,236.4z"/>
</g>
</svg>
